svgs/google_one.svg

<svg width="192" height="192" viewBox="0 0 192 192" fill="none" xmlns="http://www.w3.org/2000/svg"><path fill-rule="evenodd" clip-rule="evenodd" d="M62.627 81.255a8 8 0 0 1 0-11.314l39.598-39.598a8 8 0 0 1 11.314 11.314L73.941 81.255a8 8 0 0 1-11.314 0Zm19.8 8.485c-7.811 7.81-20.474 7.81-28.285 0-7.81-7.81-7.81-20.474 0-28.284L93.74 21.858a19.934 19.934 0 0 1 14.527-5.854 19.924 19.924 0 0 1 13.757 5.854A19.928 19.928 0 0 1 127.882 36v120c0 11.046-8.954 20-20 20-11.045 0-20-8.954-20-20V84.284l-5.456 5.456Zm17.455-17.456V156a8 8 0 0 0 16 0V56.284l-16 16Z" fill="#000"/></svg>

<svg id="vector" xmlns="http://www.w3.org/2000/svg" width="192" height="192" viewBox="0 0 192 192"><path fill="#000000" d="M62.627,81.255C59.503,78.131 59.503,73.065 62.627,69.941L102.225,30.343C105.35,27.219 110.415,27.219 113.539,30.343C116.663,33.467 116.663,38.533 113.539,41.657L73.941,81.255C70.817,84.379 65.752,84.379 62.627,81.255ZM82.426,89.74C74.616,97.551 61.953,97.551 54.142,89.74C46.332,81.93 46.332,69.266 54.142,61.456L93.74,21.858C97.547,18.051 102.507,16.1 107.496,16.004C107.753,15.999 108.01,15.999 108.267,16.004C110.82,16.052 113.256,16.578 115.489,17.497C117.866,18.474 120.094,19.927 122.024,21.858C123.944,23.777 125.391,25.99 126.367,28.351C127.344,30.707 127.882,33.291 127.882,36V156C127.882,167.046 118.928,176 107.882,176C96.837,176 87.882,167.046 87.882,156V84.284L82.426,89.74ZM99.882,72.284V156C99.882,160.418 103.464,164 107.882,164C112.301,164 115.882,160.418 115.882,156V56.284L99.882,72.284Z" fill-rule="evenodd" id="path_0"/></svg>
